cutejava-front/src/assets/icons/svg/server_monitor.svg

<?xml version="1.0" standalone="no"?><!DOCTYPE svg PUBLIC "-//W3C//DTD SVG 1.1//EN" "http://www.w3.org/Graphics/SVG/1.1/DTD/svg11.dtd"><svg t="1618565375970" class="icon" viewBox="0 0 1031 1024" version="1.1" xmlns="http://www.w3.org/2000/svg" p-id="12390" xmlns:xlink="http://www.w3.org/1999/xlink" width="201.3671875" height="200"><defs><style type="text/css"></style></defs><path d="M1024 198.4c-6.4-64-115.2-108.8-128-115.2l-179.2-76.8c-6.4 0-19.2 0-25.6 6.4s0 19.2 6.4 25.6c32 32 44.8 89.6 44.8 89.6 0 6.4 0 742.4 0 761.6 0 51.2-38.4 83.2-38.4 89.6-6.4 6.4-6.4 19.2-6.4 25.6 6.4 6.4 12.8 12.8 19.2 12.8 0 0 6.4 0 6.4 0 6.4 0 160-64 172.8-64 128-44.8 134.4-121.6 134.4-128l0-627.2zM531.2 0l-403.2 0c-70.4 0-128 57.6-128 134.4l0 755.2c0 76.8 57.6 134.4 128 134.4l396.8 0c70.4 0 128-57.6 128-134.4l0-755.2c6.4-76.8-51.2-134.4-121.6-134.4l0 0zM307.2 857.6c-44.8 0-76.8-38.4-76.8-83.2s38.4-83.2 76.8-83.2c44.8 0 76.8 38.4 76.8 83.2 6.4 44.8-32 83.2-76.8 83.2l0 0zM556.8 512c0 32-25.6 64-57.6 64l-339.2 0c-32-6.4-57.6-32-57.6-64l0-134.4 454.4 0 0 134.4zM556.8 307.2l-454.4 0 0-128c0-32 25.6-64 57.6-64l345.6 0c32 0 57.6 25.6 57.6 64l0 128z" p-id="12391"></path></svg>

<svg class="icon" viewBox="0 0 1031 1024" xmlns="http://www.w3.org/2000/svg" width="201.367" height="200"><defs><style/></defs><path d="M1024 198.4c-6.4-64-115.2-108.8-128-115.2L716.8 6.4c-6.4 0-19.2 0-25.6 6.4s0 19.2 6.4 25.6c32 32 44.8 89.6 44.8 89.6v761.6c0 51.2-38.4 83.2-38.4 89.6-6.4 6.4-6.4 19.2-6.4 25.6 6.4 6.4 12.8 12.8 19.2 12.8h6.4c6.4 0 160-64 172.8-64 128-44.8 134.4-121.6 134.4-128V198.4zM531.2 0H128C57.6 0 0 57.6 0 134.4v755.2C0 966.4 57.6 1024 128 1024h396.8c70.4 0 128-57.6 128-134.4V134.4C659.2 57.6 601.6 0 531.2 0zm-224 857.6c-44.8 0-76.8-38.4-76.8-83.2s38.4-83.2 76.8-83.2c44.8 0 76.8 38.4 76.8 83.2 6.4 44.8-32 83.2-76.8 83.2zM556.8 512c0 32-25.6 64-57.6 64H160c-32-6.4-57.6-32-57.6-64V377.6h454.4V512zm0-204.8H102.4v-128c0-32 25.6-64 57.6-64h345.6c32 0 57.6 25.6 57.6 64v128z"/></svg>
